assets/icons/qvision/flip.svg

<svg xmlns="http://www.w3.org/2000/svg" height="24" viewBox="0 0 24 24" width="24"><path d="M0 0h24v24H0z" fill="none"/><path d="M15 21h2v-2h-2v2zm4-12h2V7h-2v2zM3 5v14c0 1.1.9 2 2 2h4v-2H5V5h4V3H5c-1.1 0-2 .9-2 2zm16-2v2h2c0-1.1-.9-2-2-2zm-8 20h2V1h-2v22zm8-6h2v-2h-2v2zM15 5h2V3h-2v2zm4 8h2v-2h-2v2zm0 8c1.1 0 2-.9 2-2h-2v2z"/></svg>

<svg width="24" height="24" viewBox="0 0 24 24" fill="none" xmlns="http://www.w3.org/2000/svg">
<g clip-path="url(#clip0_147_3470)">
<path d="M15 21H17V19H15V21ZM19 9H21V7H19V9ZM3 5V19C3 20.1 3.9 21 5 21H9V19H5V5H9V3H5C3.9 3 3 3.9 3 5ZM19 3V5H21C21 3.9 20.1 3 19 3ZM11 23H13V1H11V23ZM19 17H21V15H19V17ZM15 5H17V3H15V5ZM19 13H21V11H19V13ZM19 21C20.1 21 21 20.1 21 19H19V21Z" fill="#323232"/>
</g>
<defs>
<clipPath id="clip0_147_3470">
<rect width="24" height="24" fill="white"/>
</clipPath>
</defs>
</svg>
